apps/frontend/src/shared/assets/about.svg

<?xml version="1.0" encoding="utf-8"?><!-- Uploaded to: SVG Repo, www.svgrepo.com, Generator: SVG Repo Mixer Tools -->
<svg fill="#000000" width="800px" height="800px" viewBox="0 0 56 56" xmlns="http://www.w3.org/2000/svg"><path d="M 15.5547 53.125 L 40.4453 53.125 C 45.2969 53.125 47.7109 50.6875 47.7109 45.7890 L 47.7109 10.2344 C 47.7109 5.3594 45.2969 2.8750 40.4453 2.8750 L 15.5547 2.8750 C 10.7266 2.8750 8.2891 5.3594 8.2891 10.2344 L 8.2891 45.7890 C 8.2891 50.6875 10.7266 53.125 15.5547 53.125 Z M 15.7422 49.3515 C 13.3281 49.3515 12.0625 48.0625 12.0625 45.7187 L 12.0625 10.3047 C 12.0625 7.9844 13.3281 6.6484 15.7656 6.6484 L 40.2578 6.6484 C 42.6953 6.6484 43.9375 7.9609 43.9375 10.3047 L 43.9375 45.7187 C 43.9375 48.0625 42.6953 49.3515 40.2813 49.3515 Z M 19.1406 16.4453 L 36.9062 16.4453 C 37.7266 16.4453 38.3594 15.7891 38.3594 14.9687 C 38.3594 14.1718 37.7266 13.5625 36.9062 13.5625 L 19.1406 13.5625 C 18.2734 13.5625 17.6640 14.1718 17.6640 14.9687 C 17.6640 15.7891 18.2734 16.4453 19.1406 16.4453 Z M 19.1406 24.625 L 36.9062 24.625 C 37.7266 24.625 38.3594 23.9687 38.3594 23.1484 C 38.3594 22.3515 37.7266 21.7422 36.9062 21.7422 L 19.1406 21.7422 C 18.2734 21.7422 17.6640 22.3515 17.6640 23.1484 C 17.6640 23.9687 18.2734 24.625 19.1406 24.625 Z M 19.1406 32.8047 L 27.5547 32.8047 C 28.375 32.8047 29.0078 32.1718 29.0078 31.3750 C 29.0078 30.5547 28.375 29.9218 27.5547 29.9218 L 19.1406 29.9218 C 18.2734 29.9218 17.6640 30.5547 17.6640 31.3750 C 17.6640 32.1718 18.2734 32.8047 19.1406 32.8047 Z"/></svg>

<svg
  xmlns="http://www.w3.org/2000/svg"
  width="24"
  height="24"
  fill="currentColor"
  viewBox="0 0 56 56"
>
  <path
    d="M15.555 53.125h24.89c4.852 0 7.266-2.438 7.266-7.336V10.234c0-4.875-2.414-7.359-7.266-7.359h-24.89c-4.828 0-7.266 2.484-7.266 7.36v35.554c0 4.898 2.438 7.336 7.266 7.336Zm.187-3.773c-2.414 0-3.68-1.29-3.68-3.633V10.305c0-2.32 1.266-3.657 3.704-3.657h24.492c2.437 0 3.68 1.313 3.68 3.657v35.414c0 2.343-1.243 3.633-3.657 3.633Zm3.399-32.907h17.765c.82 0 1.453-.656 1.453-1.476 0-.797-.632-1.406-1.453-1.406H19.141c-.868 0-1.477.609-1.477 1.406 0 .82.61 1.476 1.477 1.476Zm0 8.18h17.765c.82 0 1.453-.656 1.453-1.477 0-.796-.632-1.406-1.453-1.406H19.141c-.868 0-1.477.61-1.477 1.406 0 .82.61 1.477 1.477 1.477Zm0 8.18h8.414c.82 0 1.453-.633 1.453-1.43 0-.82-.633-1.453-1.453-1.453H19.14c-.868 0-1.477.633-1.477 1.453 0 .797.61 1.43 1.477 1.43Z"
  />
</svg>
